public/illustrations/_judge.svg

<svg width="374" height="325" viewBox="0 0 374 325" fill="none" xmlns="http://www.w3.org/2000/svg">
<path d="M124.292 247.057C119.237 246.321 114.82 245.91 110.501 245.174C99.486 243.461 89.1785 238.873 80.5559 231.78C72.5987 225.125 68.7476 216.658 70.2909 206.252C70.7723 202.84 71.3811 199.399 72.3014 196.044C73.9438 189.8 75.926 183.782 77.7383 177.637C81.6178 165.178 85.3557 152.747 87.1538 139.976C89.0653 127.035 90.382 114.08 89.6599 100.94C89.4476 96.9477 88.6688 93.0539 88.3149 89.0753C87.7627 83.4119 86.9698 77.9327 86.7008 72.2126C86.5733 68.6305 88.0742 65.3031 89.2776 61.8909C91.3731 55.7036 96.541 53.3816 101.893 51.3003C111.28 47.704 121.092 47.6333 130.72 48.8934C147.541 50.7482 163.752 55.3354 179.044 62.5421C181.266 63.5474 183.588 64.3829 185.698 65.5581C194.023 69.6783 199.347 76.1343 200.919 85.4932C201.825 90.8027 201.074 96.438 198.866 101.351C196.275 107.213 193.372 112.975 190.625 118.724L188.091 124.132C188.7 124.302 189.167 124.5 189.422 124.302C195.836 122.447 201.414 124.373 206.356 128.153C209.57 130.546 212.571 133.279 215.035 136.252C219.693 142.255 226.518 146.092 233.923 147.083C245.66 148.796 257.468 150.779 269.376 152.605C291.831 155.947 314.457 158.665 336.559 163.819C346.073 165.971 355.602 168.123 364.338 172.88C366.886 174.112 369.138 175.967 370.992 178.048C376.486 184.604 373.612 193.41 365.386 195.619C361.832 196.61 358.023 197.077 354.328 196.652C342.916 195.888 331.589 194.812 320.205 193.467C297.891 190.819 275.676 188.016 253.405 184.929C243.027 183.528 232.662 181.545 222.227 179.86C219.835 179.464 217.456 179.082 214.978 178.982C211.014 178.614 207.007 179.549 203.51 181.545C201.697 182.621 199.758 183.74 197.818 184.844C192.48 187.775 186.958 189.743 180.233 186.458L181.366 192.15C182.527 199.427 183.928 206.507 184.806 213.841C185.273 217.65 184.466 221.557 184.211 225.366C183.532 235.022 178.052 240.884 169.472 244.169C165.834 245.471 162.11 246.349 158.499 247.793C164.134 247.836 169.628 247.892 175.249 247.793C186.944 247.793 198.625 247.779 210.292 247.623C214.185 247.567 217.824 247 221.647 248.119C225.144 249.011 228.358 250.682 231.133 253.018C237.264 258.441 241.2 265.166 243.876 272.868C246.085 278.928 246.609 285.172 247.118 291.416C247.77 299.076 247.84 306.722 248.081 314.466L248.223 315.16C248.18 321.517 246.382 323.315 239.912 323.457C204.897 324.49 169.855 323.938 134.869 324.377C112.824 324.561 90.7785 324.759 68.7051 324.802C61.201 324.844 53.5129 324.646 45.9663 324.405C41.6054 324.264 39.3117 322.112 38.3348 317.255L38.2498 316.845C38.8587 303.876 36.6782 290.736 39.425 277.64C40.9966 270.971 43.8 264.784 48.0618 259.332C54.2066 251.036 62.6311 247.638 72.9102 247.765C89.2635 247.977 105.702 247.892 122.168 247.949C123.004 247.779 123.839 247.623 124.646 247.312L124.306 247.085L124.292 247.057ZM238.043 313.263C238.368 301.072 237.859 289.052 234.928 277.215C233.441 271.155 230.34 265.718 225.98 261.23C224.535 259.786 222.85 258.526 220.953 257.747C219.056 256.968 216.96 256.515 214.964 256.628C194.632 256.77 174.456 256.869 154.266 256.982L86.9273 257.35C84.0389 257.35 81.3205 257.45 78.4321 257.45C75.6853 257.421 72.9669 257.52 70.3192 257.322C63.4947 257.096 58.2702 260.579 54.2067 266.299C48.3874 274.808 47.4105 284.393 47.3397 294.219C47.2972 299.855 47.5521 305.433 47.6795 311.181C47.7361 312.187 48.0618 313.121 48.1467 314.268C107.571 315.471 166.825 313.673 226.107 314.169C230.001 314.112 233.937 313.631 238.184 313.22L238.043 313.249V313.263ZM99.5144 109.79L178.052 122.207C179.695 118.851 181.366 115.637 183.008 112.267C185.457 107.156 188.077 102.172 190.229 96.976C194.292 86.9233 190.342 77.9042 180.516 73.5009C178.775 72.6939 176.906 72.0569 175.164 71.2499C160.991 64.5387 145.827 60.1777 130.168 58.3796C122.565 57.1478 114.735 57.686 107.316 59.5974C100.76 61.4805 95.9464 66.3227 96.272 73.7702C96.357 75.6249 96.4561 77.6351 96.6826 79.4616C97.4755 86.371 98.41 93.2663 99.1745 100.034C99.4152 103.446 99.5002 106.76 99.5144 109.775V109.79ZM87.5786 177.694C85.1008 186.274 82.6939 194.543 80.5701 202.755C79.848 205.643 79.7064 208.56 79.7206 211.59C79.9046 218.343 84.0956 222.704 88.9945 226.343C95.5358 230.959 102.955 234.116 110.884 235.56C122.069 237.387 133.339 238.18 144.666 237.811C150.882 237.882 156.97 237.245 163.03 235.759C171.001 233.748 173.918 230.279 174.768 222.166C175.504 213.501 174.768 204.695 172.502 196.199C171.454 191.64 171.341 191.81 166.74 191.131C147.979 188.214 129.205 185.297 110.417 182.239C103.082 180.951 95.7057 179.379 87.5928 177.822L87.5644 177.68L87.5786 177.694ZM168.764 181.644C168 172.696 167.518 164.427 168.892 156.074C170.293 147.862 172.021 139.862 173.847 131.565C148.999 127.12 124.179 122.801 98.8914 119.729C98.1126 136.195 95.2809 152.492 90.467 168.165C116.561 173.815 142.344 177.935 168.75 181.503L168.779 181.644H168.764ZM363.857 184.943C362.752 182.281 360.699 181.389 358.788 180.469C350.023 176.292 340.665 174.253 331.178 172.243C307.944 167.188 284.313 164.512 260.937 160.916C249.03 159.09 237.179 156.824 225.342 154.701C220.981 153.837 217.102 151.713 213.916 148.74C211.608 146.602 209.697 144.237 207.432 142.227C204.911 139.692 202.278 137.328 199.39 135.162C198.172 134.1 196.586 133.406 194.972 133.293C193.358 133.179 191.701 133.505 190.257 134.227C188.558 135.148 186.845 135.912 184.948 136.577C183.971 136.776 183.249 137.498 182.668 138.192C182.088 138.886 181.691 139.834 181.606 140.853C180.403 147.876 179.199 154.899 177.713 161.978C176.792 166.778 178.279 170.671 181.054 174.452C184.183 178.6 186.633 179.266 191.347 176.887C194.094 175.471 196.827 173.928 199.404 172.399C203.269 170.048 207.8 168.859 212.316 169.114C215.644 169.171 219.042 169.511 222.312 170.02C236.754 172.215 251.154 174.976 265.539 176.887C284.979 179.52 304.489 181.857 323.972 184.051C334.293 185.184 344.572 186.019 354.979 186.841C358.094 187.237 361.28 186.6 363.871 185.071L363.842 184.929L363.857 184.943Z" fill="#102185"/>
<path d="M281.68 47.2377C281.213 48.4836 280.59 49.7577 279.811 50.9329C278.395 52.5186 276.923 53.8213 275.11 54.8974C262.651 63.435 250.007 71.7179 237.392 80.1422C236.5 80.7511 235.579 81.2183 234.645 81.5581C233.71 81.8979 232.563 81.9685 231.643 81.7137C230.723 81.4588 229.732 80.7933 229.123 79.9013C228.514 79.0093 228.316 78.0465 228.401 77.0129C228.486 75.9793 228.882 75.045 229.732 74.2946C230.822 73.2185 232.068 72.2415 233.342 71.4062C243.154 64.8366 252.994 58.4085 262.806 51.8531C266.36 49.4178 269.617 46.8978 273.015 44.3493C274.516 43.1883 275.931 42.3245 277.9 42.8059C279.868 43.2873 280.986 44.5048 281.524 47.2799L281.666 47.2515L281.68 47.2377Z" fill="#102185"/>
<path d="M216.14 66.8747C211.977 67.6959 209.089 64.8075 209.867 61.4802C210.292 59.9511 211.042 58.6486 211.793 57.346C219.807 43.9237 227.636 30.2464 234.376 16.2011C234.872 15.0967 235.579 14.233 236.273 13.3693C236.995 12.6473 237.916 12.18 238.878 11.9818C239.841 11.7836 240.903 12.0102 241.71 12.435C242.517 12.8598 243.268 13.7093 243.735 14.6296C244.202 15.55 244.117 16.5692 244.032 17.6027C243.692 18.8204 243.225 20.0664 242.715 21.1849C236.5 32.8091 230.157 44.4617 223.785 55.9727C222.313 58.7194 220.727 61.636 218.943 64.2978C218.136 65.3172 217.187 66.3791 216.196 67.1578L216.14 66.8747Z" fill="#102185"/>
<path d="M196.827 5.17169C196.912 8.47064 197.068 12.1945 197.223 15.9182C197.62 25.9425 198.172 35.9386 198.54 45.8213C198.597 47.5487 198.399 49.4597 197.861 51.1446C197.521 52.3623 196.827 53.2262 195.808 53.8633C194.788 54.5004 193.67 54.7269 192.48 54.5287C190.059 53.9907 189.011 52.334 188.884 49.474C188.403 37.5949 188.063 25.6735 187.581 13.7944C187.468 11.0759 187.227 8.38593 187.284 5.76659C187.284 2.15615 188.898 0.103052 191.631 0.00394188C194.363 -0.0951683 196.289 1.67466 196.87 5.31342L196.841 5.17169H196.827Z" fill="#102185"/>
<path d="M45.0887 115.934C46.4479 118.256 46.6886 119.757 45.8391 121.399C45.3294 122.192 44.7347 122.872 43.9985 123.297C43.2622 123.721 42.2003 123.863 41.3649 123.863C40.4729 123.735 39.6942 123.537 38.7739 123.084C27.4045 118.284 16.1484 113.4 4.77896 108.6C3.92944 108.274 3.13656 107.765 2.41447 107.368C0.149081 105.74 -0.558851 103.701 0.446414 101.79C1.43752 99.5666 3.60379 98.7739 6.33642 99.7933C8.99824 100.685 11.7309 101.705 14.2794 102.682C23.5533 106.42 32.7706 110.37 42.0304 114.108C43.1489 114.603 44.2108 115.297 45.1453 116.047L45.0745 115.92L45.0887 115.934Z" fill="#102185"/>
<path d="M55.3113 90.8595C56.5289 92.9267 56.713 94.6399 55.8068 96.1548C55.4104 96.8769 54.7024 97.6273 53.8954 97.9388C53.1591 98.3636 52.2105 98.4346 51.2477 98.1798C50.1575 97.9957 49.039 97.5 47.9346 97.0045C38.1934 91.8932 28.6363 86.8385 19.0226 81.6564C18.1023 81.2175 17.2386 80.5662 16.4882 79.8583C15.6953 79.3486 15.1856 78.485 14.9308 77.4939C14.6759 76.5028 14.8033 75.5967 15.2423 74.6764C15.8794 73.8127 16.6581 73.1896 17.5926 72.8073C18.5129 72.425 19.6597 72.4109 20.7075 72.779C21.0898 72.8781 21.3588 73.0481 21.826 73.2747C32.0769 78.4142 42.526 83.5963 52.8477 88.8633C53.8388 89.4296 54.7024 90.0669 55.4528 90.7748L55.3254 90.8454L55.3113 90.8595Z" fill="#102185"/>
<path d="M61.5977 67.781C63.2543 70.5844 63.2118 72.7508 61.5411 74.3791C60.7057 75.2003 59.7146 75.4549 58.6385 75.5965C57.4917 75.6107 56.4581 75.2426 55.5803 74.6055C52.1114 72.0569 48.7275 69.112 45.3719 66.4785C41.1526 63.2078 36.8625 59.8239 32.6291 56.5675C30.2221 54.6985 29.5566 52.4615 30.746 50.2811C31.3689 49.0918 32.3884 48.3274 33.6343 47.9309C34.8803 47.5345 36.282 47.69 37.3439 48.3696C38.6465 48.9218 39.7792 49.7288 40.9261 50.5359C46.986 55.5197 52.9609 60.3761 59.0067 65.3599C59.9411 66.1245 60.7623 66.9598 61.4561 67.8518L61.5835 67.781H61.5977Z" fill="#102185"/>
</svg>

<svg xmlns="http://www.w3.org/2000/svg" width="374" height="325" fill="none" viewBox="0 0 374 325"><path fill="#102185" d="M124.292 247.057c-5.055-.736-9.472-1.147-13.791-1.883-11.015-1.713-21.323-6.301-29.945-13.394-7.957-6.655-11.808-15.122-10.265-25.528.481-3.412 1.09-6.853 2.01-10.208 1.643-6.244 3.625-12.262 5.437-18.407 3.88-12.459 7.618-24.89 9.416-37.661 1.911-12.941 3.228-25.896 2.506-39.036-.212-3.992-.991-7.886-1.345-11.865-.552-5.663-1.345-11.142-1.614-16.862-.128-3.582 1.373-6.91 2.577-10.322 2.095-6.187 7.263-8.51 12.615-10.59 9.387-3.597 19.199-3.668 28.827-2.408a152 152 0 0 1 48.324 13.65c2.222 1.004 4.544 1.84 6.654 3.015 8.325 4.12 13.649 10.576 15.221 19.935.906 5.31.155 10.945-2.053 15.858-2.591 5.862-5.494 11.624-8.241 17.373l-2.534 5.408c.609.17 1.076.368 1.331.17 6.414-1.855 11.992.071 16.934 3.851 3.214 2.393 6.215 5.126 8.679 8.099 4.658 6.003 11.483 9.84 18.888 10.831 11.737 1.713 23.545 3.696 35.453 5.522 22.455 3.342 45.081 6.06 67.183 11.214 9.514 2.152 19.043 4.304 27.779 9.061 2.548 1.232 4.8 3.087 6.654 5.168 5.494 6.556 2.62 15.362-5.606 17.571-3.554.991-7.363 1.458-11.058 1.033-11.412-.764-22.739-1.84-34.123-3.185-22.314-2.648-44.529-5.451-66.8-8.538-10.378-1.401-20.743-3.384-31.178-5.069-2.392-.396-4.771-.778-7.249-.878-3.964-.368-7.971.567-11.468 2.563a366 366 0 0 1-5.692 3.299c-5.338 2.931-10.86 4.899-17.585 1.614l1.133 5.692c1.161 7.277 2.562 14.357 3.44 21.691.467 3.809-.34 7.716-.595 11.525-.679 9.656-6.159 15.518-14.739 18.803-3.638 1.302-7.362 2.18-10.973 3.624 5.635.043 11.129.099 16.75 0 11.695 0 23.376-.014 35.043-.17 3.893-.056 7.532-.623 11.355.496a23.84 23.84 0 0 1 9.486 4.899c6.131 5.423 10.067 12.148 12.743 19.85 2.209 6.06 2.733 12.304 3.242 18.548.652 7.66.722 15.306.963 23.05l.142.694c-.043 6.357-1.841 8.155-8.311 8.297-35.015 1.033-70.057.481-105.043.92-22.045.184-44.09.382-66.164.425-7.504.042-15.192-.156-22.739-.397-4.36-.141-6.654-2.293-7.631-7.15l-.085-.41c.609-12.969-1.572-26.109 1.175-39.205 1.572-6.669 4.375-12.856 8.637-18.308 6.145-8.296 14.57-11.694 24.848-11.567 16.353.212 32.792.127 49.258.184.836-.17 1.671-.326 2.478-.637l-.34-.227zm113.751 66.206c.325-12.191-.184-24.211-3.115-36.048-1.487-6.06-4.588-11.497-8.948-15.985-1.445-1.444-3.13-2.704-5.027-3.483s-3.993-1.232-5.989-1.119c-20.332.142-40.508.241-60.698.354l-67.339.368c-2.888 0-5.607.1-8.495.1-2.747-.029-5.465.07-8.113-.128-6.824-.226-12.049 3.257-16.112 8.977-5.82 8.509-6.797 18.094-6.867 27.92-.043 5.636.212 11.214.34 16.962.056 1.006.382 1.94.467 3.087 59.424 1.203 118.678-.595 177.96-.099 3.894-.057 7.83-.538 12.077-.949l-.141.029zM99.514 109.79l78.538 12.417c1.643-3.356 3.314-6.57 4.956-9.94 2.449-5.111 5.069-10.095 7.221-15.291 4.063-10.053.113-19.072-9.713-23.475-1.741-.807-3.61-1.444-5.352-2.251a143.2 143.2 0 0 0-44.996-12.87c-7.603-1.232-15.433-.694-22.852 1.217-6.556 1.883-11.37 6.726-11.044 14.173.085 1.855.184 3.865.41 5.692.793 6.909 1.728 13.804 2.492 20.572.241 3.412.326 6.726.34 9.741zM87.58 177.694c-2.478 8.58-4.885 16.849-7.009 25.061-.722 2.888-.864 5.805-.85 8.835.185 6.753 4.376 11.114 9.275 14.753 6.54 4.616 13.96 7.773 21.889 9.217 11.185 1.827 22.455 2.62 33.782 2.251 6.216.071 12.304-.566 18.364-2.052 7.971-2.011 10.888-5.48 11.738-13.593.736-8.665 0-17.471-2.266-25.967-1.048-4.559-1.161-4.389-5.762-5.068-18.761-2.917-37.535-5.834-56.323-8.892-7.335-1.288-14.711-2.86-22.824-4.417l-.029-.142zm81.185 3.95c-.764-8.948-1.246-17.217.128-25.57 1.401-8.212 3.129-16.212 4.955-24.509-24.848-4.445-49.668-8.764-74.956-11.836a196.7 196.7 0 0 1-8.424 48.436c26.094 5.65 51.877 9.77 78.283 13.338l.029.141zm195.093 3.299c-1.105-2.662-3.158-3.554-5.069-4.474-8.765-4.177-18.123-6.216-27.61-8.226-23.234-5.055-46.865-7.731-70.241-11.327-11.907-1.826-23.758-4.092-35.595-6.215-4.361-.864-8.24-2.988-11.426-5.961-2.308-2.138-4.219-4.503-6.484-6.513-2.521-2.535-5.154-4.899-8.042-7.065-1.218-1.062-2.804-1.756-4.418-1.869a9.2 9.2 0 0 0-4.715.934 36 36 0 0 1-5.309 2.35c-.977.199-1.699.921-2.28 1.615s-.977 1.642-1.062 2.661c-1.203 7.023-2.407 14.046-3.893 21.125-.921 4.8.566 8.693 3.341 12.474 3.129 4.148 5.579 4.814 10.293 2.435a156 156 0 0 0 8.057-4.488c3.865-2.351 8.396-3.54 12.912-3.285 3.328.057 6.726.397 9.996.906 14.442 2.195 28.842 4.956 43.227 6.867 19.44 2.633 38.95 4.97 58.433 7.164 10.321 1.133 20.6 1.968 31.007 2.79 3.115.396 6.301-.241 8.892-1.77l-.029-.142zM281.68 47.238a18.5 18.5 0 0 1-1.869 3.695c-1.416 1.586-2.888 2.888-4.701 3.964-12.459 8.538-25.103 16.82-37.718 25.245a12.4 12.4 0 0 1-2.747 1.416c-.935.34-2.082.41-3.002.156-.92-.255-1.911-.92-2.52-1.813s-.807-1.855-.722-2.888c.085-1.034.481-1.968 1.331-2.718a23.6 23.6 0 0 1 3.61-2.889c9.812-6.57 19.652-12.998 29.464-19.553 3.554-2.435 6.811-4.955 10.209-7.504 1.501-1.16 2.916-2.024 4.885-1.543s3.086 1.699 3.624 4.474l.142-.029zM216.14 66.875c-4.163.82-7.051-2.067-6.273-5.395.425-1.529 1.175-2.831 1.926-4.134 8.014-13.422 15.843-27.1 22.583-41.145.496-1.104 1.203-1.968 1.897-2.832a5.16 5.16 0 0 1 2.605-1.387c.963-.198 2.025.028 2.832.453s1.558 1.274 2.025 2.195.382 1.94.297 2.973a25 25 0 0 1-1.317 3.582 2723 2723 0 0 1-18.93 34.788c-1.472 2.746-3.058 5.663-4.842 8.325-.807 1.02-1.756 2.081-2.747 2.86zM196.827 5.172c.085 3.299.241 7.023.396 10.746.397 10.025.949 20.02 1.317 29.903.057 1.728-.141 3.639-.679 5.324-.34 1.217-1.034 2.081-2.053 2.718a4.66 4.66 0 0 1-3.328.666c-2.421-.538-3.469-2.195-3.596-5.055-.481-11.88-.821-23.8-1.303-35.68-.113-2.718-.354-5.408-.297-8.027 0-3.61 1.614-5.664 4.347-5.763 2.732-.1 4.658 1.67 5.239 5.31l-.029-.142zM45.089 115.934c1.359 2.322 1.6 3.823.75 5.465-.51.793-1.104 1.473-1.84 1.898-.737.424-1.799.566-2.634.566-.892-.128-1.67-.326-2.591-.779-11.37-4.8-22.626-9.684-33.995-14.484-.85-.326-1.642-.835-2.365-1.232C.15 105.74-.559 103.701.446 101.79c.992-2.223 3.158-3.016 5.89-1.997 2.662.892 5.395 1.912 7.943 2.889 9.274 3.738 18.492 7.688 27.751 11.426 1.119.495 2.18 1.189 3.115 1.939l-.07-.127zM55.311 90.86c1.218 2.067 1.402 3.78.496 5.295-.397.722-1.105 1.472-1.912 1.784-.736.425-1.684.496-2.647.24-1.09-.183-2.209-.679-3.313-1.175a2920 2920 0 0 1-28.912-15.348c-.92-.439-1.784-1.09-2.535-1.798-.793-.51-1.302-1.373-1.557-2.364s-.128-1.897.311-2.818c.637-.863 1.416-1.486 2.35-1.869.92-.382 2.068-.396 3.116-.028.382.1.65.27 1.118.496 10.25 5.14 20.7 10.321 31.022 15.588a13.6 13.6 0 0 1 2.605 1.912l-.128.07zM61.598 67.781c1.656 2.803 1.614 4.97-.057 6.598-.835.821-1.826 1.076-2.902 1.218-1.147.014-2.18-.354-3.059-.991-3.469-2.55-6.852-5.494-10.208-8.127-4.22-3.271-8.51-6.655-12.743-9.911-2.407-1.87-3.072-4.106-1.883-6.287.623-1.19 1.642-1.954 2.888-2.35s2.648-.241 3.71.439c1.303.552 2.435 1.359 3.582 2.166 6.06 4.984 12.035 9.84 18.08 14.824.935.764 1.756 1.6 2.45 2.492l.127-.071z"/></svg>
